svg/crypto/binance_coin_BNB_fill.svg

<?xml version="1.0" encoding="UTF-8"?>
<svg width="24px" height="24px" viewBox="0 0 24 24" version="1.1" xmlns="http://www.w3.org/2000/svg" xmlns:xlink="http://www.w3.org/1999/xlink">
    <title>binance_coin_BNB_fill</title>
    <g id="页面-1" stroke="none" stroke-width="1" fill="none" fill-rule="evenodd">
        <g id="Business" transform="translate(-96.000000, -432.000000)" fill-rule="nonzero">
            <g id="binance_coin_BNB_fill" transform="translate(96.000000, 432.000000)">
                <path d="M24,0 L24,24 L0,24 L0,0 L24,0 Z M12.5934901,23.257841 L12.5819402,23.2595131 L12.5108777,23.2950439 L12.4918791,23.2987469 L12.4918791,23.2987469 L12.4767152,23.2950439 L12.4056548,23.2595131 C12.3958229,23.2563662 12.3870493,23.2590235 12.3821421,23.2649074 L12.3780323,23.275831 L12.360941,23.7031097 L12.3658947,23.7234994 L12.3769048,23.7357139 L12.4804777,23.8096931 L12.4953491,23.8136134 L12.4953491,23.8136134 L12.5071152,23.8096931 L12.6106902,23.7357139 L12.6232938,23.7196733 L12.6232938,23.7196733 L12.6266527,23.7031097 L12.609561,23.275831 C12.6075724,23.2657013 12.6010112,23.2592993 12.5934901,23.257841 L12.5934901,23.257841 Z M12.8583906,23.1452862 L12.8445485,23.1473072 L12.6598443,23.2396597 L12.6498822,23.2499052 L12.6498822,23.2499052 L12.6471943,23.2611114 L12.6650943,23.6906389 L12.6699349,23.7034178 L12.6699349,23.7034178 L12.678386,23.7104931 L12.8793402,23.8032389 C12.8914285,23.8068999 12.9022333,23.8029875 12.9078286,23.7952264 L12.9118235,23.7811639 L12.8776777,23.1665331 C12.8752882,23.1545897 12.8674102,23.1470016 12.8583906,23.1452862 L12.8583906,23.1452862 Z M12.1430473,23.1473072 C12.1332178,23.1423925 12.1221763,23.1452606 12.1156365,23.1525954 L12.1099173,23.1665331 L12.0757714,23.7811639 C12.0751323,23.7926639 12.0828099,23.8018602 12.0926481,23.8045676 L12.108256,23.8032389 L12.3092106,23.7104931 L12.3186497,23.7024347 L12.3186497,23.7024347 L12.3225043,23.6906389 L12.340401,23.2611114 L12.337245,23.2485176 L12.337245,23.2485176 L12.3277531,23.2396597 L12.1430473,23.1473072 Z" id="MingCute" fill-rule="nonzero"></path>
                <path d="M8.11089,13.7677 L11.6464,17.3032 C11.8417,17.4985 12.1583,17.4985 12.3535,17.3032 L15.8891,13.7677 C16.0843,13.5724 16.4009,13.5724 16.5962,13.7677 L18.1518,15.3233 C18.3471,15.5186 18.3471,15.8351 18.1518,16.0304 L12.3534,21.8287 C12.1582,22.024 11.8416,22.024 11.6463,21.8287 L5.84811,16.0304 C5.65285,15.8352 5.65285,15.5186 5.84811,15.3233 L7.40378,13.7677 C7.59904,13.5724 7.91563,13.5724 8.11089,13.7677 Z M20.20377,10.0329393 L20.273,10.0908 L21.8287,11.6464 C22.0022111,11.82 22.0214901,12.089442 21.886537,12.28427 L21.8287,12.3535 L20.2731,13.9091 C20.0995889,14.0826111 19.8301568,14.1018901 19.6352597,13.966937 L19.566,13.9091 L18.0104,12.3534 C17.8368,12.1798889 17.8175111,11.9104568 17.9525333,11.7155597 L18.0104,11.6463 L19.5659,10.0908 C19.7178,9.93891556 19.943079,9.90516346 20.1275449,9.9895437 L20.20377,10.0329393 Z M4.43393,10.0907 L5.98957,11.6463 C6.18483,11.8416 6.18483,12.1582 5.98957,12.3534 L4.43385,13.9092 C4.23858,14.1044 3.922,14.1044 3.72674,13.9092 L2.1711,12.3535 C1.97584,12.1583 1.97584,11.8417 2.17111,11.6464 L3.72683,10.0907 C3.92209,9.89544 4.23867,9.89544 4.43393,10.0907 Z M12.2842436,10.0329393 L12.3535,10.0908 L13.9091,11.6464 C14.0827,11.82 14.1019889,12.089442 13.9669667,12.28427 L13.9091,12.3535 L12.3536,13.9091 C12.18,14.0826111 11.910558,14.1018901 11.71573,13.966937 L11.6465,13.9091 L10.0908,12.3534 C9.91727111,12.1798889 9.89799802,11.9104568 10.0329597,11.7155597 L10.0908,11.6463 L11.6464,10.0908 C11.7983,9.93891556 12.0235185,9.90516346 12.2080045,9.9895437 L12.2842436,10.0329393 Z M12.3535,2.1711 L18.1518,7.96938 C18.3471,8.16464 18.3471,8.48123 18.1518,8.67649 L16.5962,10.2321 C16.4009,10.4274 16.0843,10.4274 15.8891,10.2321 L12.3535,6.69659 C12.1583,6.50133 11.8417,6.50133 11.6464,6.69659 L8.11089,10.2321 C7.91563,10.4274 7.59904,10.4274 7.40378,10.2321 L5.84815,8.67649 C5.65288,8.48123 5.65288,8.16464 5.84815,7.96938 L11.6464,2.17111 C11.8417,1.97584 12.1583,1.97584 12.3535,2.1711 Z" id="形状" fill="#09244B"></path>
            </g>
        </g>
    </g>
</svg>

<svg xmlns="http://www.w3.org/2000/svg" width="24" height="24"><g fill="none" fill-rule="nonzero"><path d="M24 0v24H0V0h24ZM12.593 23.258l-.011.002-.071.035-.02.004-.014-.004-.071-.035c-.01-.004-.019-.001-.024.005l-.004.01-.017.428.005.02.01.013.104.074.015.004.012-.004.104-.074.012-.016.004-.017-.017-.427c-.002-.01-.009-.017-.017-.018Zm.265-.113-.013.002-.185.093-.01.01-.003.011.018.43.005.012.008.007.201.093c.012.004.023 0 .029-.008l.004-.014-.034-.614c-.003-.012-.01-.02-.02-.022Zm-.715.002a.023.023 0 0 0-.027.006l-.006.014-.034.614c0 .012.007.02.017.024l.015-.002.201-.093.01-.008.004-.011.017-.43-.003-.012-.01-.01-.184-.092Z"/><path fill="#09244B" d="m8.11 13.768 3.536 3.535a.5.5 0 0 0 .707 0l3.536-3.535a.5.5 0 0 1 .707 0l1.556 1.555a.5.5 0 0 1 0 .707l-5.799 5.799a.5.5 0 0 1-.707 0L5.848 16.03a.5.5 0 0 1 0-.707l1.556-1.555a.5.5 0 0 1 .707 0Zm12.094-3.735.069.058 1.556 1.555a.5.5 0 0 1 .058.638l-.058.07-1.556 1.555a.5.5 0 0 1-.638.058l-.069-.058-1.556-1.556a.5.5 0 0 1-.057-.637l.057-.07 1.556-1.555a.5.5 0 0 1 .562-.101l.076.043Zm-15.77.058 1.556 1.555a.5.5 0 0 1 0 .707L4.434 13.91a.5.5 0 0 1-.707 0L2.17 12.353a.5.5 0 0 1 0-.707l1.556-1.555a.5.5 0 0 1 .707 0Zm7.85-.058.07.058 1.555 1.555a.5.5 0 0 1 .058.638l-.058.07-1.555 1.555a.5.5 0 0 1-.638.058l-.07-.058-1.555-1.556a.5.5 0 0 1-.058-.637l.058-.07 1.555-1.555a.5.5 0 0 1 .562-.101l.076.043Zm.07-7.862 5.798 5.798a.5.5 0 0 1 0 .707l-1.556 1.556a.5.5 0 0 1-.707 0l-3.535-3.535a.5.5 0 0 0-.708 0l-3.535 3.535a.5.5 0 0 1-.707 0L5.848 8.676a.5.5 0 0 1 0-.707l5.798-5.798a.5.5 0 0 1 .707 0Z"/></g></svg>
